X:1
T:Prompto Gentes Animo, 776 D
T:Prompto Gentes Animo, 776 D
T:Rouen Church Melody
T:Public Domain Courtesy of the Cyber Hymnal™
C:Rouen Church Melody
Z:Public Domain
Z:Courtesy of the Cyber Hymnal™
%%score ( 1 2 ) ( 3 4 )
L:1/8
M:3/4
K:A
V:1 treble 
V:2 treble 
V:3 bass 
V:4 bass 
V:1
 [CEA]4 [A,E]2 | F2 E2 [A,D]2 | [A,C]4 [A,D]2 | [G,B,E]6 | [DFA]4 [DGB]2 | [EAc]4 [Fd]2 | %6
 c2 B2 [CFA]2 | [EGB]6 | [DF]4 [DG]2 | [CFA]4 [DFB]2 | G4 A2 | [CEA]6 | [Ec]4 [FA]2 | d2 c2 [GB]2 | %14
 c2 B2 [CFA]2 | [EGB]6 | [DF]4 [DB]2 | A2 G2 [B,E]2 | [DF]4 [DG]2 | [FA]6 | B2 c2 [CFA]2 | %21
 [FAd]4 [FAc]2 | B6 [EG]2 | [EA]6 |] %24
V:2
 x6 | [A,D]4 x2 | x6 | x6 | x6 | x6 | E4 x2 | x6 | x6 | x6 | [B,E]6 | x6 | x6 | [FA]4 x2 | %14
 [EG]4 x2 | x6 | x6 | C4 x2 | x6 | x6 | [EG]4 x2 | x6 | [DF]4 x4 | x6 |] %24
V:3
 A,,4 C,2 | D,4 F,2 | A,4 F,2 | E,6 | D,4 B,,2 | A,,4 [D,A,]2 | A,4 F,2 | E,6 | [D,A,]4 [B,,B,]2 | %9
 F,4 D,2 | E,6 | A,,6 | [A,C]4 [F,C]2 | D,4 [E,B,]2 | C,4 F,2 | E,6 | [D,A,]4 [B,,D,]2 | %17
 [C,E,]4 [E,G,]2 | [D,A,]4 [B,,B,]2 | [F,C]6 | E,4 F,2 | D,4 F,2 | B,,4 E,2 x2 | [A,,C]6 |] %24
V:4
 x6 | x6 | x6 | x6 | x6 | x6 | A,4 x2 | x6 | x6 | x6 | x6 | x6 | x6 | x6 | x6 | x6 | x6 | x6 | x6 | %19
 x6 | x6 | x6 | x8 | x6 |] %24

